X: 1882
T: The Spanish Cavalier
B: australian traditional tunes wiki
M:4/4
L:1/8
Q: 1/4=100
K:G
V:1 
D2||"G"D>B B>^AB3 G/G/|"C"E2c>B c3E|"D7"D2F>Ae2d>^c|"G"d4B2zB|
d2 G>B"G7"d3d/d/|"C"e2c>A"Am"E3E|"D7"D>D F>A d>^c =c>F|A4"G"G2D2||
D2B2B3G|"C"E2c>B "Am"c4|"D7"D2F>Ae2 "G"d>"G0"^c|"G"d4B4|
d2G>Bd3d|"Am"e2c>A E3E|"D7"D2F>A d>^c =c>A|A4"G"G2||
% abcbook-tune_id 6342d53af9cf4dcf493c635a


% abcbook-boost 0
% abcbook-tablature 
% abcbook-transpose 
% abcbook-lastupdated 1665324390242
% abcbook-soundfonts 
% abcbook-repeats 1
% NFF Book 2013

